X:3
T:Lucretia
T:for three
P:AA B CC x5
K:C major
M:6/4
L:1/8
C:Nathan Kronenfeld
P:A
 |: "G"d4c2 B4AG | "D"A2B2A2 "G"G6 | "G"G4d2 d4cB | "C"c4e2 e4dc | "G"B4d2 d4cB | "D"A4G2 A6 :| 
P:B
"G"G6 "D"^F4A2 | "G"B2c2B2 d6 | "G"G4d2 d4cB | "C"c4e2 e4dc | "G"B4d2 d4cB | "D"A4G2 A6 |: 
P:C
"G"G6 "D"^F4A2 | "G"B2c2B2 d6 | "G"d4c2 B4AG | "D"A2B2A2 "G"G6 :| 

